X:1
T:Songs
T:The First Mercy
T:Songs
T:Peter Warlock
T:9. The First Mercy
T:Bruce Blunt
T:OpenScore (CC0)
T:OpenScore (CC0)
T:OpenScore (CC0)
T:OpenScore (CC0)
C:Peter Warlock
Z:Bruce Blunt
Z:OpenScore (CC0)
%%score ( 1 2 ) { ( 3 6 ) | ( 4 5 7 ) }
L:1/8
Q:1/4=116
M:6/8
K:F
V:1 treble nm="Voice"
V:2 treble 
V:3 treble nm="Piano"
V:6 treble 
V:4 bass 
V:5 bass 
V:7 bass 
V:1
"^Allegretto con moto" z6 | z6 | G2 A B2 d | c2 A G3 | d2 d (c>=B) G | (G>_B) A B3 | A2 G d2 G | %7
w: ||Ox and ass at|Beth- le- hem|On a night, * ye|know * of them.|We were on- ly|
 B2 c B3 | A2 G d2 G | (G>A) =F G3 | z6 | z6 | G2 A B d2 | c2 A"^\n" G2- G | B2 B _d3 | c _A2 B3 | %16
w: crea- tures small,|hid by sha- dows|on * the wall.|||We were swal- low,|moth and mouse; The|Child was born|in our house.|
 z B B f3 | e3/2 d/ ^c d3 | B2 B c2 B | A2 A G3 | z6 | z6 | G2 A B2 d | c2 A G3 | d2 d (c=B) G | %25
w: And the bright|eyes of us three|Peeped at His na-|ti- vi- ty.|||Hands of peace up-|on that place|Hushed our be- * ings|
 (G_B) A B3 | A2 G d2 G | B2 c B3 | A2 G d2 G | (G>A) =F G3 | z6 | z6 | G2 A B2 d | c2 A G3 | %34
w: for... * a space|Qui- et feet and|fold- ed wing,|Nor a sound of|a- * ny- thing.|||With a mov- ing|star we crept|
 B2 B _d2 d | c2 _A B3 | B2 B f2 e | d2 ^c d3 | B2 B c2 B | A2 A G3 | z6 | z6 | G2 A B2 d | %43
w: Clo- ser when the|Ba- by slept|Men who guard- ed|where He lay|Moved to fright- en|us a- way.|||But the Babe, a-|
 c2 A G3 | d2 d (c=B) G | (G>_B) A B3 | A2 G d2 G | B2 c B3 | A2 G d2 G | G3/2 (A/=F) G3 | z6 | %51
w: \- wa- kened, laid|Love on things * that|were..... * a- fraid;|With so sweet a|ges- ture He|Called us to His|com- pan- * y.||
 z6 | z6 | z6 | z6 | z6 |] %56
w: |||||
V:2
 x6 | x6 | x6 | x6 | x6 | x6 | x6 | x6 | x6 | x6 | x6 | x6 | x6 | x6 | x3 _d2 d | x6 | x3 f2 f | %17
 (e>d) x4 | x6 | x6 | x6 | x6 | x6 | x6 | x6 | x6 | x6 | x6 | x6 | x6 | x6 | x6 | x6 | x6 | x6 | %35
 x6 | x6 | x6 | x6 | x6 | x6 | x6 | x6 | x6 | x6 | x6 | x6 | x6 | x6 | (G>A) F x3 | x6 | x6 | x6 | %53
 x6 | x6 | x6 |] %56
V:3
!mp! z2 ([G-A-g] [GAd]3) | [GAd]2 ([G-A-g] [GAd]3) |"_legato" [B,DG]2 [CFA] [_EGB]2 [DFd] | %3
 [=Ec]2 [FA] [DG]3 | d2 d c>=BG | G>_BA B2 G | A2 G d2 G | B2 c [DB]3 | A2 G d2 G | %9
 G>AF G2 ([G-A-g] | [GAd]3-) [GAd]2 ([G-A-g] | [GAd]6) |!p! [DG]2 [FA] [_EGB] [DFd]2 | %13
 [=Ec]2 [FA] [DG]2- [DG] | [_EB]2 [FB] [B,_G_d]3 | [C_Ac] [_DFA]2 B3 | B2 B f3 | e>=d^c d3 | %18
 B2 B [=E=Ac]2 [D_GB] | [GA]2 A G2 ([G-A-g] | [GAd]3-) [GAd]2 ([G-A-g] | [GAd]6) |!pp! ([bd']6- | %23
 [egbd']3 [dd']2 [cc']) | [dgad']6 | ([cc']3 [Bb]3) | [cega]6 | [dfb]6 | [egc']6 | %29
 [dd']3- [dd']2 ([G-A-g] | d3- d2 g | !breath!d6) |!p! [_EG]2 [FA] [GB]2 [Bd] | [Ac]2 [FA] [DG]3 | %34
 [_EB]2 [FB] [_G_d]2 [Fd] | [C_E_Ac]2 [_DFA] B3 | B2 B f2 e | =d2 ^c d3 | B2 B [_E_Ac]2 [D=GB] | %39
 [G=A]2 A G2 ([G-A-g] | [GAd]3-) [GAd]2 ([G-A-g] | [GAd]6) |!mf! [GBd]2 [Acf] [GB_eg]2 [Bdgb] | %43
 [Ac=ea]2 [^FAd^f] g2 z | [FBd]2 [Gd] c=BG | [_EG_B]2 [EFA] [DB]3 |!mp! A2 G [Ad]2 G | %47
 B2 [G-c] [DB]3 |!<(! A2 G [Gd]2!<)! [DG] | ([Ge]2 [Fd]) [DG]2!mf! ([G-A-g] | %50
 [GAd]3-) [G-A-d]2 ([GAg] | [GAd]3-) [GAd]2!f! [g=be'g'] | [d^f=bd']6- |!p! [dfbd']6 | %54
!mp! [=Bdg=b]6- | [Bdgb]3 z2 z |] %56
V:4
 z2 ([G,-B,-D] [G,B,E]3-) | [G,B,E]2 ([G,-B,-D] [G,B,E]3) | D,2 F, _E,2 [B,,B,] | G,>A,D C2 A, | %4
 =B,2 A, G,2 G, | G,2 C G,>A,B, | ^F,2 G, ^F,>G,B, | G,2 A, G,2 F, | %8
 !tenuto!G,2 !tenuto!A, !tenuto!B,2 !tenuto!D | !tenuto!C2 !tenuto!A, !tenuto!G,2 ([G,B,-D] | %10
 [D,B,E]3) z2 ([G,B,-D] |!ped! [D,B,E]3) C3!ped-up! | [G,B,]2 C2 [B,,F,B,]2 | G,>A,D C>A,B, | %14
 [_E,G,]2 [D,F,] [_G,,_D,]3 | [_A,,_E,] _D,2 ([B,,F,]2 [E,G,]) | D2 D ^C2 C | D>^DE F2 E | %18
 _E2 D ^F,2 G, | [D,A,]2 D,, G,,2 ([G,B,-D] | [D,B,E]3) z2 ([G,B,-D] | [D,B,E]3) C3 | %22
[K:treble] [Bd]6- | [Bd]3 [DEGA]3 | [CDEGA]6 | (G3 D3) | [DEGA]6 | [DGB]6 | [DGAc]6 | %29
 ([D-A]3 [DG]2) z[K:bass] | (D3 E3 | D3 !breath!C3) | [C,B,]2 [D,C] [=E,D]2 [G,F] | %33
 [F,=E]2 [D,C] [G,=B,]2 [F,A,] | [_E,G,]2 [D,F,] [_G,,_D,]3 | [_A,,_E,]2 _D, (G,2 _G,) | %36
 D2 D ^C2 D | ^D2 E F2 E | _E2 D ^F,2 G, | [D,A,]2 D,, G,,2 [G,B,D] | [D,B,E]3 z2 ([G,B,D] | %41
!ped! [D,B,E]6)!ped-up! | [G,B,D]2 [F,CF] [_E,B,_E]2 [B,,G,D] | [C,A,=E]2 [D,A,D] =B,>CA, | %44
 [_B,D]>[A,C][G,B,] (D2 C) | [F,G,B,C]2 [F,A,C] (G,2 F,) | ^F,2 G, ^F,>G,B, | %47
 G,2 =A, B,2 !courtesy!=A,- | A,2 B, =B,3 | A,2 C =B,2 ([G,B,] | %50
!ped! [D,B,E]3) z2 ([G,=B,]!ped-up! |!ped! [D,B,E]3) z2!ped-up![I:staff -1] [EG=Be] | %52
!ped! [D^F=B]6- | [DFB]6!ped-up! |"_\n"[I:staff +1]{/[G,,D,]-} [G,,D,]6- | [G,,D,]3 z2 z |] %56
V:5
 [G,,D,]3 z2 ([D,,E,] | [G,,D,]3) z2 ([D,,E,] | G,,2) x4 | C,2 D, G,3 | G,2 G, F,2 E, | %5
 _E,2 D, C,2 B,, | E,2 _E, D,2 _D, | C,2 F,, B,,3 | C,3 D,3 | D,3 G,,2 z | z2 ([D,,E,] [G,,D,]3) | %11
 x3 [D,,E,]3 | x2 F, _E, x2 | C,2 D, G,2 F, | x6 | x6 | B,2 A, G,3 | G,3 F,3- | F,3 D,3 | x5 z | %20
 z2 ([D,,E,] [G,,D,]3) | x3 [D,,E,]3 |[K:treble] G3- [FG-]3 | [EG]3 x3 | x6 | [CF]6 | x6 | x6 | %28
 x6 | x11/2[K:bass] x/ | [D,A,]6- | [D,A,]6 | x6 | x6 | x6 | x3 B,,3 | B,2 =A, G,3- | G,3 F,3- | %38
 F,3 D,3 | x5 z | z2 ([D,,E,] [G,,D,]3) | x3 C3 | x6 | x3 [G,,D,]2 z | x3 [E,G,]3 | x3 [B,,B,]3 | %46
 E,2 _E, D,2 _D, | C,2 =B,, _B,,3 | C,3 D,3 | D,3 G,,2 z | z2 ([D,,-G,,-E,] [D,,G,,D,]3) | %51
 z2 ([D,,-G,,-E,] [D,,G,,D,]2) z | x6 | [E,C]6 | x6 | x6 |] %56
V:6
 x6 | x6 | x6 | x6 | G2 F E2 D | C>DF _E2 D | C2 ^C D>_E=F | =E2 [_EG-] G2 F | _E3 D2 B, | %9
 A,2 D- D2 x | x6 | x6 | x6 | x6 | x6 | x3 (=D2 _E) | G2 F B3 | B3 A2 G | _G2 F x3 | D>E^F x3 | %20
 x6 | x6 | g3- [fg-]3 | x3 [ga]2 x | x6 | [fg]6 | x6 | x6 | x6 | (a3 g2) x | [GA]6- | [GA]6 | x6 | %33
 x6 | x3 B,3 | x3 (=D2 _E) | G2 F B3- | B3 A2 G | _G2 F x3 | D>E^F x3 | x6 | x6 | x6 | %43
 x3 [Gd]>[Ae][=Fc] | x3 G3 | x3 (G2 F) | ^C2 D =E2 =F | =E2 _E G2 F | =E3 x3 | c3 x3 | x6 | x6 | %52
 x6 | x6 | [=B,DG]6- | [B,DG]3 x3 |] %56
V:7
 x6 | x6 | x6 | x6 | x6 | x6 | x6 | x6 | x6 | x6 | x6 | x6 | x6 | x6 | x6 | x6 | x6 | x6 | x6 | %19
 x6 | x6 | x6 |[K:treble] x6 | x6 | x6 | x6 | x6 | x6 | x6 | x11/2[K:bass] x/ | x6 | x6 | x6 | x6 | %34
 x6 | x6 | x6 | x6 | x6 | x6 | x6 | x3 [D,,E,]3 | x6 | x6 | x6 | x6 | x6 | x6 | x6 | x6 | x6 | x6 | %52
 x6 | [D,,,D,,]6 | x6 | x6 |] %56

